X:204
T:Day of Wrath, O Day of Mourning
%%stretchlast false
M:4/4
L:1/4
K:Eb clef=C1
"^vi"[CGce]3/2 "^vii7³"[CFcd]/ "^vi"[CEc] "^vii7³"[CFcd] | "^vi"[CGce] "^ii²"[CAcf] "^vi¹"[EGcg] [EGc] | "^ii"[FAca] [FAda] "^vi¹"[EGcg] [EGc] | "^viiø7"[DAcf]/ [DA=Bf]/ "^vi¹"[EGce]/ "^vi"[FGce]/ "^III"[G=Bd] "^V/ii"[CGc=e] | "^ii"[FAcf] [F,Fdf]/ "^ii7"[F,Ecf]/ "^III7"[G,D=Bf] "^vi²"[G,Ece]/ [G,Fce]/ | "^V/vi"[G,G=Bd] "^vi¹"[E,Gce]/ "^vi"[F,Gce]/ [G,Fcd]/ "^V/vi"[G,D=Bd]/ "^vi"[CEc] | [CGce] "^IV"[A,Ace]/ "^vi+"[A,Aca]/ "^♯vi"[E,B_da]3/2 "^I7"[EB_dg]/ | "^♯vi"[EA_df] "^I7"[EB_dg] "^♯vi"[A,A_da] "^IV"[A,Ace] | "^IV²"[EAce] [EAca] "^♯vi"[E,B_da]3/2 "^I7"[EB_dg]/ | "^♯vi"[EA_df] "^I7"[EB_dg] "^vi+"[A,Aca] "^IV"[A,ce] | [Acec'] "^viiø7¹"[FAdc'] "^vi¹"[EGcc']3/2 [EGc]/ | "^viiø7¹"[FAcd] "^ii"[F,Acf] "^vi²"[G,Gce] [G,Ece] | "^III+"[G,F=Be] "^III7"[G,F=Bd] "^vi"[CEc]2 |]
